!!!OTL: 102f. Die Mannsverraetherin.
!!!ARE: Europa, Mitteleuropa, Deutschland, Brandenburg
!!!SCT: E0102
!!!TXL: @@DE
!!!YEM: Copyright 1995, estate of Helmut Schaffrath.
**kern	**text
*ICvox	*
*clefG2	*
*M2/4	*
*k[]	*
*C:	*
!LO:TX:a:t=Mäßig bewegt.	!
!LO:TX:a:t=Mel. 1806 aus dem Brandenburgiſchen.	!
{4cc	Hans,
=1	=1
8cc	ſatt-
8g	-le
8a	mir
8g	den
=2	=2
[4cc	Gaul!
8cc]}	.
{8ee	Hans,
=3	=3
8dd	ſatt-
8cc	-le
8b	hübſch
8dd	und
=4	=4
4g	fein!
8r}	.
{8cc	Wir
=5	=5
8cc	wol-
8g	-len
8a	Beid
16eL	aus-
16fJ	.
=6	=6
4g	-rei-
8e}	-ten,
{8g	vor
=7	=7
8cc	Klaſch-
8g	-toch
8e	blei-
8d	-be
=8	=8
4c}	ſtehn!
==	==
!!!AGN: erzaehlendes Volks - Lied, Sage, Liebe, Leid, Tod, Verrat, Ballade ?
!!!ONB: ESAC (Essen Associative Code) Database: ERK1
!!!AMT: simple duple
!!!AIN: vox
!!!EED: Helmut Schaffrath
!!!EEV: 1.0
!!!GTL: Liebesgeschichten mit tragischem Schluss
!!!URL-scan: https://rosdok.uni-rostock.de/mcrviewer/recordIdentifier/rosdok_ppn745146120/iview2/phys_0431.iview2?x=-422.27491384562836&y=1828.3060797057115&scale=0.554360769283424&rotation=0&layout=singlePageLayout
!!!ENC: Anna Maria Matuszewska
!!!EEV: 2024/02/12
*-	*-
